src/client/web-contents/img/common/badge/badge_status_04_01.svg

<?xml version="1.0" encoding="UTF-8"?>
<svg width="84px" height="36px" viewBox="0 0 84 36" version="1.1" xmlns="http://www.w3.org/2000/svg" xmlns:xlink="http://www.w3.org/1999/xlink">
    <!-- Generator: Sketch 52.4 (67378) - http://www.bohemiancoding.com/sketch -->
    <title>mdpi/##Element/Badge/Member01</title>
    <desc>Created with Sketch.</desc>
    <defs>
        <polygon id="path-1" points="0 0.77 18.3289 0.77 18.3289 20 0 20"></polygon>
        <polygon id="path-3" points="0.6795 0.693 18.04 0.693 18.04 18.956 0.6795 18.956"></polygon>
    </defs>
    <g id="##Element/Badge/Member01" stroke="none" stroke-width="1" fill="none" fill-rule="evenodd">
        <rect id="Rectangle-2" fill="#FFFFFF" x="0" y="0" width="84" height="36" rx="18"></rect>
        <g id="Group-9" transform="translate(15.000000, 7.000000)">
            <g id="Group-3" transform="translate(0.000000, 0.230500)">
                <mask id="mask-2" fill="white">
                    <use xlink:href="#path-1"></use>
                </mask>
                <g id="Clip-2"></g>
                <path d="M15.3369,10.0332 L15.3369,20.0002 L13.3999,20.0002 L13.3999,0.7692 L15.3369,0.7692 L15.3369,8.4272 L18.3289,8.4272 L18.3289,10.0332 L15.3369,10.0332 Z M10.6499,15.3132 C8.9339,14.1912 6.6899,11.7932 5.9629,9.5702 C5.3039,11.9032 3.3889,14.3452 1.2109,15.7982 L-0.0001,14.3452 C2.9049,12.5192 4.9509,9.1752 4.9509,5.6322 L4.9509,2.4202 L6.9529,2.4202 L6.9529,5.5442 C6.9529,9.1522 9.1089,12.1892 11.8159,13.8612 L10.6499,15.3132 Z" id="Fill-1" fill="#F76252" mask="url(#mask-2)"></path>
            </g>
            <path d="M24.1914,8.503 L24.1914,10.638 L29.0094,10.638 L29.0094,8.525 C28.3054,8.635 27.5134,8.701 26.6324,8.701 C25.7314,8.701 24.9174,8.635 24.1914,8.503 M26.6324,3.046 C23.7954,3.046 22.0124,3.773 22.0124,5.093 C22.0124,6.413 23.7954,7.139 26.6324,7.139 C29.4494,7.139 31.2764,6.413 31.2764,5.093 C31.2764,3.773 29.4944,3.046 26.6324,3.046 M21.9024,16.754 C21.9024,17.986 23.7954,18.624 26.6324,18.624 C29.5154,18.624 31.4294,17.986 31.4294,16.754 C31.4294,15.478 29.4944,14.84 26.6324,14.84 C23.7954,14.84 21.9024,15.478 21.9024,16.754 M26.6324,20.209 C22.3864,20.209 19.8344,18.933 19.8344,16.732 C19.8344,14.532 22.3864,13.277 26.6324,13.277 C30.9024,13.277 33.4764,14.532 33.4764,16.732 C33.4764,18.933 30.9024,20.209 26.6324,20.209 M30.9464,8.019 L30.9464,10.638 L35.3244,10.638 L35.3244,12.222 L17.9634,12.222 L17.9634,10.638 L22.2544,10.638 L22.2544,7.975 C20.7804,7.358 20.0104,6.369 20.0104,5.093 C20.0104,2.893 22.4534,1.506 26.6324,1.506 C30.8364,1.506 33.2554,2.893 33.2554,5.093 C33.2554,6.391 32.4424,7.402 30.9464,8.019" id="Fill-4" fill="#F76252"></path>
            <g id="Group-8" transform="translate(38.000000, 1.230500)">
                <mask id="mask-4" fill="white">
                    <use xlink:href="#path-3"></use>
                </mask>
                <g id="Clip-7"></g>
                <path d="M4.7285,15.502 C4.7285,16.756 6.5545,17.372 9.3495,17.372 C12.1655,17.372 14.0135,16.756 14.0135,15.502 C14.0135,14.226 12.1435,13.609 9.3495,13.609 C6.5545,13.609 4.7285,14.226 4.7285,15.502 Z M16.3455,7.669 C13.3095,7.25 10.3615,5.578 9.3495,3.818 C8.5355,5.622 5.6745,7.25 2.3965,7.669 L1.5385,6.15 C4.5085,5.908 7.6325,4.479 8.2495,2.277 L2.3525,2.277 L2.3525,0.693 L16.3685,0.693 L16.3685,2.277 L10.5155,2.277 C11.1755,4.5 14.5635,5.908 17.2265,6.128 L16.3455,7.669 Z M9.3495,18.956 C5.1905,18.956 2.7265,17.68 2.7265,15.48 C2.7265,13.455 4.7945,12.245 8.3365,12.069 L8.3365,10.353 L0.6795,10.353 L0.6795,8.747 L18.0405,8.747 L18.0405,10.353 L10.2945,10.353 L10.2945,12.047 C13.8815,12.224 16.0155,13.455 16.0155,15.48 C16.0155,17.68 13.5075,18.956 9.3495,18.956 Z" id="Fill-6" fill="#F76252" mask="url(#mask-4)"></path>
            </g>
        </g>
    </g>
</svg>

<svg height="36" viewBox="0 0 84 36" width="84" xmlns="http://www.w3.org/2000/svg" xmlns:xlink="http://www.w3.org/1999/xlink"><mask id="a" fill="#fff"><path d="m0 .77h18.3289v19.23h-18.3289z" fill="#fff" fill-rule="evenodd"/></mask><mask id="b" fill="#fff"><path d="m.6795.693h17.3605v18.263h-17.3605z" fill="#fff" fill-rule="evenodd"/></mask><g fill="none" fill-rule="evenodd"><rect fill="#fff" height="36" rx="18" width="84"/><g fill="#f76252" transform="translate(15 7)"><path d="m15.3369 10.0332v9.967h-1.937v-19.231h1.937v7.658h2.992v1.606zm-4.687 5.28c-1.716-1.122-3.96-3.52-4.687-5.743-.659 2.333-2.574 4.775-4.752 6.228l-1.211-1.453c2.905-1.826 4.951-5.17 4.951-8.713v-3.212h2.002v3.124c0 3.608 2.156 6.645 4.863 8.317z" mask="url(#a)" transform="translate(0 .2305)"/><path d="m24.1914 8.503v2.135h4.818v-2.113c-.704.11-1.496.176-2.377.176-.901 0-1.715-.066-2.441-.198m2.441-5.457c-2.837 0-4.62.727-4.62 2.047s1.783 2.046 4.62 2.046c2.817 0 4.644-.726 4.644-2.046s-1.782-2.047-4.644-2.047m-4.73 13.708c0 1.232 1.893 1.87 4.73 1.87 2.883 0 4.797-.638 4.797-1.87 0-1.276-1.935-1.914-4.797-1.914-2.837 0-4.73.638-4.73 1.914m4.73 3.455c-4.246 0-6.798-1.276-6.798-3.477 0-2.2 2.552-3.455 6.798-3.455 4.27 0 6.844 1.255 6.844 3.455 0 2.201-2.574 3.477-6.844 3.477m4.314-12.19v2.619h4.378v1.584h-17.361v-1.584h4.291v-2.663c-1.474-.617-2.244-1.606-2.244-2.882 0-2.2 2.443-3.587 6.622-3.587 4.204 0 6.623 1.387 6.623 3.587 0 1.298-.813 2.309-2.309 2.926"/><path d="m4.7285 15.502c0 1.254 1.826 1.87 4.621 1.87 2.816 0 4.664-.616 4.664-1.87 0-1.276-1.87-1.893-4.664-1.893-2.795 0-4.621.617-4.621 1.893zm11.617-7.833c-3.036-.419-5.984-2.091-6.996-3.851-.814 1.804-3.675 3.432-6.953 3.851l-.858-1.519c2.97-.242 6.094-1.671 6.711-3.873h-5.897v-1.584h14.016v1.584h-5.853c.66 2.223 4.048 3.631 6.711 3.851zm-6.996 11.287c-4.159 0-6.623-1.276-6.623-3.476 0-2.025 2.068-3.235 5.61-3.411v-1.716h-7.657v-1.606h17.361v1.606h-7.746v1.694c3.587.177 5.721 1.408 5.721 3.433 0 2.2-2.508 3.476-6.666 3.476z" mask="url(#b)" transform="translate(38 1.2305)"/></g></g></svg>
